X:1
T:Litany (Scholefield), 77.76
T:Litany (Scholefield), 77.76
T:Clement Cotterill Scholefield, 1874
T:Public Domain Courtesy of the Cyber Hymnal™
C:Clement Cotterill Scholefield, 1874
Z:Public Domain
Z:Courtesy of the Cyber Hymnal™
%%score ( 1 2 ) ( 3 4 )
L:1/8
Q:1/4=102
M:4/4
K:Eb
V:1 treble 
V:2 treble 
V:3 bass 
V:4 bass 
V:1
 [EG]2 [EG]2 [FB]2 [EG]2 | F2 [CE]2 [DF]4 | [FA]2 [FA]2 [Gc]2 [FA]2 | [EG]2 [DF]2 [EG]4 | %4
 [FB]2 [EB]2 [Ee]2 [Gc]2 | [GB]2 [^F=A]2 G4 x | [CF]2 [=EG]2 [FB]2 [FA]2 | (G2 F2) E4 |] %8
V:2
 x8 | F2 x6 | x8 | x8 | x8 | x4 (G2 =E2) x | x8 | D4 E4 |] %8
V:3
 [E,B,]2 [E,B,]2 [D,B,]2 [E,B,]2 | [C,=A,]2 [F,A,]2 [B,,B,]4 | [F,C]2 [F,C]2 [=E,C]2 [F,C]2 | %3
 B,2 [B,,B,]2 [E,B,]4 | [D,A,]2 [E,G,]2 [C,G,]2 [E,C]2 | D3 z C B,4 | A,2 [G,C]2 [F,C]2 [A,,C]2 | %7
 (B,2 A,2) [E,G,]4 |] %8
V:4
 x8 | x8 | x8 | B,2 x6 | x8 | D,2 D,2 (G,2 C,2) x | A,2 x6 | B,,4 x4 |] %8

